public/images/quot-mark-s.svg

<svg width="16" height="13" viewBox="0 0 16 13" fill="none" xmlns="http://www.w3.org/2000/svg">
<g clip-path="url(#clip0_73_5449)">
<path fill-rule="evenodd" clip-rule="evenodd" d="M15.9298 2.03037C13.5439 3.15836 12.351 4.48372 12.351 6.00651C13.3679 6.11931 14.2088 6.5188 14.8738 7.20499C15.5387 7.89118 15.8712 8.68546 15.8712 9.58785C15.8712 10.5466 15.5485 11.355 14.9031 12.013C14.2577 12.671 13.4461 13 12.4683 13C11.3731 13 10.4246 12.5723 9.62279 11.7169C8.82096 10.8615 8.42005 9.82285 8.42005 8.60087C8.42005 4.93491 10.5517 2.06798 14.8151 0L15.9298 2.03037ZM7.50978 2.03037C5.10429 3.15836 3.90156 4.48372 3.90156 6.00651C4.93808 6.11931 5.78878 6.5188 6.45372 7.20499C7.11865 7.89118 7.45111 8.68546 7.45111 9.58785C7.45111 10.5466 7.12354 11.355 6.46838 12.013C5.81323 12.671 4.99675 13 4.0189 13C2.92372 13 1.98012 12.5723 1.18807 11.7169C0.39602 10.8615 0 9.82285 0 8.60087C0 4.93491 2.12188 2.06798 6.36571 0L7.50978 2.03037Z" fill="#1DB5BE"/>
</g>
<defs>
<clipPath id="clip0_73_5449">
<rect width="16" height="13" fill="white"/>
</clipPath>
</defs>
</svg>

<svg width="16" height="13" fill="none" xmlns="http://www.w3.org/2000/svg"><g clip-path="url(#a)"><path fill-rule="evenodd" clip-rule="evenodd" d="M15.93 2.03c-2.386 1.128-3.579 2.454-3.579 3.977 1.017.112 1.858.512 2.523 1.198.665.686.997 1.48.997 2.383 0 .959-.322 1.767-.968 2.425-.645.658-1.457.987-2.435.987-1.095 0-2.043-.428-2.845-1.283C8.82 10.86 8.42 9.823 8.42 8.6c0-3.666 2.132-6.533 6.395-8.601l1.115 2.03Zm-8.42 0C5.104 3.158 3.902 4.484 3.902 6.007c1.036.112 1.887.512 2.552 1.198.665.686.997 1.48.997 2.383 0 .959-.327 1.767-.983 2.425-.655.658-1.471.987-2.45.987-1.094 0-2.038-.428-2.83-1.283C.396 10.86 0 9.823 0 8.6 0 4.935 2.122 2.068 6.366 0L7.51 2.03Z" fill="#1DB5BE"/></g><defs><clipPath id="a"><path fill="#fff" d="M0 0h16v13H0z"/></clipPath></defs></svg>
